;Generated by Cura LulzBot Edition GCodeWriter Version: 3.6.27
;FLAVOR:Marlin
;TIME:15528
;Filament used: 9.20306m
;Layer height: 0.25
;Generated with Cura_SteamEngine 3.6.27-4
M82 ;absolute extrusion mode
;This G-Code has been generated specifically for the LulzBot TAZ 6 with standard extruder
M73 P0 ; clear GLCD progress bar
M75 ; start GLCD timer
G26 ; clear potential 'probe fail' condition
M107 ; disable fans
M420 S0 ; disable previous leveling matrix
G90 ; absolute positioning
M82 ; set extruder to absolute mode
G92 E0 ; set extruder position to 0
M140 S60.0 ; start bed heating up
M109 R140 ; soften filament before homing Z
G28 ; Home all axis
G1 E-30 F100 ; retract filament
M109 R140 ; wait for extruder to reach wiping temp
G1 X-17 Y100 F3000 ; move above wiper pad
G1 Z1 ; push nozzle into wiper
G1 X-19 Y95 F1000 ; slow wipe
G1 X-19 Y90 F1000 ; slow wipe
G1 X-19 Y85 F1000 ; slow wipe
G1 X-17 Y90 F1000 ; slow wipe
G1 X-19 Y80 F1000 ; slow wipe
G1 X-17 Y95 F1000 ; slow wipe
G1 X-17 Y75 F2000 ; fast wipe
G1 X-17 Y65 F2000 ; fast wipe
G1 X-19 Y70 F2000 ; fast wipe
G1 X-17 Y60 F2000 ; fast wipe
G1 X-19 Y55 F2000 ; fast wipe
G1 X-17 Y50 F2000 ; fast wipe
G1 X-19 Y40 F2000 ; fast wipe
G1 X-17 Y45 F2000 ; fast wipe
G1 X-19 Y35 F2000 ; fast wipe
G1 X-17 Y40 F2000 ; fast wipe
G1 X-19 Y70 F2000 ; fast wipe
G1 X-17 Y30 Z2 F2000 ; fast wipe
G1 X-19 Y35 F2000 ; fast wipe
G1 X-17 Y25 F2000 ; fast wipe
G1 X-19 Y30 F2000 ; fast wipe
G1 X-17 Y25 Z1.5 F1000 ; slow wipe
G1 X-19 Y23 F1000 ; slow wipe
G1 Z10 ; raise extruder
M109 R140 ; wait for extruder to reach probe temp
G1 X-10 Y293 F4000 ; move above first probe point
M204 S100 ; set probing acceleration
G29 ; start auto-leveling sequence
M420 S1 ; activate bed level matrix
M425 Z			     ; use measured Z backlash for compensation
M425 Z F0		     ; turn off measured Z backlash compensation. (if activated in the quality settings, this command will automatically be ignored)
M204 S500 ; restore standard acceleration
G1 X0 Y0 Z15 F5000 ; move up off last probe point
G4 S1 ; pause
M400 ; wait for moves to finish
M117 Heating... ; progress indicator message on LCD
M109 R200 ; wait for extruder to reach printing temp
M190 R60.0 ; wait for bed to reach printing temp
G1 Z2 E0 F75 ; prime tiny bit of filament into the nozzle
M117 TAZ 6 Printing... ; progress indicator message on LCD

M221 S100 T0
G92 E0
G1 F600 E-1
;LAYER_COUNT:51
;LAYER:0
M107
G0 F2625 X138.822 Y29.311 Z0.425
;TYPE:SKIRT
G1 F600 E0
G1 F900 X139.111 Y28.891 E0.01698
G1 X139.462 Y28.521 E0.03397
G1 X139.866 Y28.211 E0.05093
G1 X140.313 Y27.968 E0.06788
G1 X140.794 Y27.797 E0.08489
G1 X141.294 Y27.704 E0.10183
G1 X141.804 Y27.69 E0.11882
G1 X142.309 Y27.756 E0.13579
G1 X142.798 Y27.9 E0.15277
G1 X143.262 Y28.121 E0.16989
G1 X148.742 Y31.284 E0.38065
G1 X149.162 Y31.573 E0.39763
G1 X149.531 Y31.923 E0.41457
G1 X149.842 Y32.327 E0.43156
G1 X150.085 Y32.775 E0.44853
G1 X150.182 Y33.019 E0.45728
G1 X151.347 Y36.327 E0.57411
G1 X153.395 Y41.416 E0.75683
G1 X155.727 Y46.381 E0.93955
G1 X158.329 Y51.194 E1.12181
G1 X161.199 Y55.85 E1.304
G1 X164.325 Y60.333 E1.48605
G1 X167.734 Y64.676 E1.66996
G1 X169.464 Y66.7 E1.75865
G1 X173.215 Y70.724 E1.9419
G1 X177.17 Y74.512 E2.12432
G1 X181.322 Y78.062 E2.30628
G1 X185.682 Y81.383 E2.48885
G1 X190.226 Y84.454 E2.67154
G1 X193.78 Y86.607 E2.80995
G1 X250.339 Y119.272 E4.98558
G1 X250.759 Y119.56 E5.00255
G1 X251.129 Y119.911 E5.01954
G1 X251.439 Y120.315 E5.0365
G1 X251.682 Y120.763 E5.05348
G1 X251.853 Y121.243 E5.07045
G1 X251.946 Y121.744 E5.08742
G1 X251.96 Y122.253 E5.10438
G1 X251.894 Y122.758 E5.12135
G1 X251.75 Y123.247 E5.13833
G1 X251.531 Y123.707 E5.1553
G1 X251.243 Y124.128 E5.17229
G1 X250.707 Y124.653 E5.19728
G1 X247.259 Y127.331 E5.34271
G1 X243.085 Y130.91 E5.52586
G1 X239.145 Y134.696 E5.70787
G1 X235.405 Y138.719 E5.89085
G1 X233.638 Y140.789 E5.9815
G1 X231.928 Y142.913 E6.07233
G1 X228.677 Y147.32 E6.25475
G1 X225.684 Y151.899 E6.43698
G1 X222.957 Y156.634 E6.61899
G1 X220.488 Y161.543 E6.80203
G1 X218.309 Y166.566 E6.98441
G1 X217.315 Y169.148 E7.07657
G1 X216.43 Y171.664 E7.16541
G1 X214.827 Y176.919 E7.34842
G1 X213.526 Y182.245 E7.53105
G1 X212.981 Y184.962 E7.62336
G1 X212.535 Y187.591 E7.71218
G1 X211.841 Y193.047 E7.89539
G1 X211.459 Y198.499 E8.07744
G1 X211.385 Y203.983 E8.26013
G1 X211.621 Y209.442 E8.44214
G1 X212.168 Y214.9 E8.62486
G1 X213.021 Y220.314 E8.80743
G1 X213.545 Y222.924 E8.8961
G1 X214.87 Y228.306 E9.08073
G1 X215.91 Y231.837 E9.20335
G1 X216.015 Y232.335 E9.2203
G1 X216.041 Y232.844 E9.23728
G1 X215.987 Y233.351 E9.25426
G1 X215.855 Y233.843 E9.27123
G1 X215.647 Y234.308 E9.2882
G1 X215.369 Y234.735 E9.30517
G1 X215.028 Y235.114 E9.32215
G1 X214.632 Y235.434 E9.33911
G1 X214.19 Y235.689 E9.35611
G1 X213.715 Y235.871 E9.37305
G1 X213.216 Y235.977 E9.39004
G1 X212.794 Y236.005 E9.40413
G1 X107.543 Y236.055 E12.91008
G1 X102.068 Y236.365 E13.09275
G1 X96.636 Y236.982 E13.27485
G1 X91.245 Y237.906 E13.45705
G1 X85.918 Y239.132 E13.63913
G1 X83.292 Y239.854 E13.72985
G1 X78.065 Y241.535 E13.91275
G1 X72.957 Y243.502 E14.09507
G1 X67.953 Y245.764 E14.278
G1 X65.531 Y246.983 E14.36832
G1 X60.759 Y249.647 E14.55037
G1 X56.122 Y252.591 E14.73333
G1 X51.661 Y255.791 E14.9162
G1 X49.723 Y257.299 E14.998
G1 X49.298 Y257.579 E15.01495
G1 X48.834 Y257.79 E15.03193
G1 X48.342 Y257.925 E15.04893
G1 X47.836 Y257.982 E15.06589
G1 X47.327 Y257.959 E15.08286
G1 X46.828 Y257.857 E15.09983
G1 X46.351 Y257.678 E15.1168
G1 X46.114 Y257.555 E15.12569
G1 X40.608 Y254.406 E15.33698
G1 X40.186 Y254.119 E15.35398
G1 X39.815 Y253.77 E15.37094
G1 X39.503 Y253.367 E15.38792
G1 X39.258 Y252.921 E15.40487
G1 X39.086 Y252.441 E15.42185
G1 X38.991 Y251.941 E15.43881
G1 X38.975 Y251.431 E15.4558
G1 X39.039 Y250.926 E15.47276
G1 X39.181 Y250.437 E15.48972
G1 X39.405 Y249.963 E15.50719
G1 X65.011 Y205.513 E17.21594
G1 X67.468 Y200.64 E17.39772
G1 X69.654 Y195.621 E17.58008
G1 X71.559 Y190.465 E17.76317
G1 X73.161 Y185.238 E17.94528
G1 X74.475 Y179.891 E18.12869
G1 X74.999 Y177.272 E18.21766
G1 X75.855 Y171.829 E18.4012
G1 X76.397 Y166.391 E18.58323
G1 X76.631 Y160.93 E18.76531
G1 X76.554 Y155.447 E18.94797
G1 X76.171 Y149.995 E19.13002
G1 X75.476 Y144.552 E19.3128
G1 X74.942 Y141.461 E19.41729
G1 X74.895 Y140.954 E19.43425
G1 X74.928 Y140.445 E19.45124
G1 X75.04 Y139.948 E19.46821
G1 X75.33 Y139.283 E19.49238
G1 X138.822 Y29.311 E23.72228
G1 F600 E22.72228
;MESH:
G0 F2625 X140.678 Y31.251
G0 X141.915 Y31.966
G0 X133.312 Y56.395
G0 X133.408 Y56.37
;TYPE:WALL-INNER
G1 F600 E23.72228
G1 F900 X133.624 Y56.495 E23.73059
G1 X245.933 Y121.336 E28.05038
G1 X95.9 Y121.336 E33.04803
G1 X83.483 Y142.842 E33.87524
G1 X83.358 Y143.058 E33.88355
G1 X83.142 Y142.933 E33.88893
G1 X79.159 Y140.633 E34.04213
G1 X141.784 Y32.164 E38.21424
G1 X141.909 Y31.948 E38.22255
G1 X142.125 Y32.073 E38.22792
G1 X146.108 Y34.373 E38.38113
G1 X133.533 Y56.154 E39.2189
G1 X133.408 Y56.37 E39.22427
G0 F2625 X133.312 Y56.395
G0 X127.944 Y116.536
G0 X128.03 Y116.486
G1 F900 X218.135 Y116.486 E42.2257
G1 X220.435 Y112.502 E42.37894
G1 X220.56 Y112.286 E42.38725
G1 X220.344 Y112.161 E42.39263
G1 X153.196 Y73.394 E44.97536
G1 X152.98 Y73.269 E44.98367
G1 X152.856 Y73.485 E44.98903
G1 X128.03 Y116.486 E46.64299
G0 F2625 X128.896 Y115.986
;TYPE:WALL-OUTER
G1 F900 X217.846 Y115.986 E49.60594
G1 X219.752 Y112.685 E49.73291
G1 X219.877 Y112.469 E49.74123
G1 X219.661 Y112.344 E49.7466
G1 X153.379 Y74.077 E52.29602
G1 X153.163 Y73.952 E52.30434
G1 X153.039 Y74.168 E52.30969
G1 X128.896 Y115.986 E53.91815
G0 F2625 X129.146 Y115.986
G0 X129.146 Y116.586
G0 X127.996 Y116.506
G0 X133.791 Y56.705
G0 X134.091 Y56.187
G1 F900 X246.991 Y121.37 E58.26068
G1 X247.799 Y121.836 E58.29175
G1 X246.867 Y121.836 E58.3078
G1 X246.866 Y121.836 E58.30783
G1 X96.189 Y121.836 E63.32693
G1 X83.666 Y143.525 E64.16118
G1 X83.541 Y143.741 E64.1695
G1 X83.325 Y143.616 E64.17487
G1 X78.476 Y140.816 E64.36139
G1 X141.601 Y31.481 E68.5668
G1 X141.726 Y31.265 E68.57511
G1 X141.942 Y31.39 E68.58049
G1 X146.791 Y34.19 E68.76701
G1 X134.091 Y56.187 E69.61309
G0 F2625 X134.307 Y56.312
G0 X134.007 Y56.83
G0 X132.738 Y56.55
;TYPE:SKIN
G1 F900 X244.103 Y120.846 E73.89656
G1 X95.617 Y120.846 E78.84269
G1 X83.178 Y142.389 E79.67132
G1 X79.829 Y140.454 E79.80016
G1 X142.089 Y32.617 E83.94795
G1 X145.438 Y34.552 E84.07679
G1 X132.738 Y56.55 E84.9229
G0 F2625 X152.8 Y72.599
G1 F900 X127.181 Y116.976 E86.62976
G1 X218.418 Y116.976 E89.6689
G1 X221.23 Y112.106 E89.85622
G1 X152.8 Y72.599 E92.48826
G0 F2625 X95.881 Y121.302
G0 X80.184 Y140.288
G1 F900 X80.445 Y140.549 E92.50056
G0 F2625 X80.443 Y139.84
G1 F900 X82.121 Y141.518 E92.5796
G1 X82.209 Y141.606
G0 F2625 X83.203 Y141.893
G1 F900 X80.702 Y139.391 E92.69744
G0 F2625 X80.96 Y138.943
G1 F900 X83.462 Y141.445 E92.81531
G0 F2625 X83.721 Y140.997
G1 F900 X81.219 Y138.495 E92.93317
G0 F2625 X81.478 Y138.047
G1 F900 X83.98 Y140.548 E93.05101
G0 F2625 X84.239 Y140.101
G1 F900 X81.737 Y137.598 E93.1689
G0 F2625 X81.996 Y137.15
G1 F900 X84.498 Y139.652 E93.28677
G0 F2625 X84.757 Y139.204
G1 F900 X82.254 Y136.702 E93.40465
G0 F2625 X82.513 Y136.253
G1 F900 X85.016 Y138.756 E93.52256
G0 F2625 X85.274 Y138.307
G1 F900 X82.772 Y135.805 E93.64043
G0 F2625 X83.031 Y135.357
G1 F900 X85.533 Y137.859 E93.75829
G0 F2625 X85.792 Y137.411
G1 F900 X83.29 Y134.908 E93.87618
G0 F2625 X83.548 Y134.46
G1 F900 X86.051 Y136.963 E93.99409
G0 F2625 X86.31 Y136.514
G1 F900 X83.807 Y134.012 E94.11198
G0 F2625 X84.066 Y133.563
G1 F900 X86.568 Y136.066 E94.22987
G0 F2625 X86.827 Y135.618
G1 F900 X84.325 Y133.115 E94.34775
G0 F2625 X84.584 Y132.667
G1 F900 X87.086 Y135.169 E94.46562
G0 F2625 X87.345 Y134.721
G1 F900 X84.842 Y132.219 E94.58351
G0 F2625 X85.101 Y131.77
G1 F900 X87.604 Y134.273 E94.70142
G0 F2625 X87.863 Y133.825
G1 F900 X85.36 Y131.322 E94.81933
G0 F2625 X85.619 Y130.874
G1 F900 X88.122 Y133.377 E94.93724
G0 F2625 X88.381 Y132.929
G1 F900 X85.878 Y130.425 E95.05517
G0 F2625 X86.136 Y129.977
G1 F900 X88.64 Y132.48 E95.17311
G0 F2625 X88.898 Y132.032
G1 F900 X86.395 Y129.529 E95.29102
G0 F2625 X86.654 Y129.08
G1 F900 X89.157 Y131.584 E95.40896
G0 F2625 X89.416 Y131.135
G1 F900 X86.913 Y128.632 E95.52687
G0 F2625 X87.172 Y128.184
G1 F900 X89.675 Y130.687 E95.64478
G0 F2625 X89.934 Y130.239
G1 F900 X87.431 Y127.736 E95.76269
G0 F2625 X87.69 Y127.288
G1 F900 X90.192 Y129.79 E95.88055
G0 F2625 X90.451 Y129.342
G1 F900 X87.949 Y126.84 E95.99842
G0 F2625 X88.208 Y126.391
G1 F900 X90.71 Y128.894 E96.11631
G0 F2625 X90.969 Y128.446
G1 F900 X88.466 Y125.943 E96.23422
G0 F2625 X88.725 Y125.495
G1 F900 X91.228 Y127.998 E96.35213
G0 F2625 X91.487 Y127.55
G1 F900 X88.984 Y125.046 E96.47006
G0 F2625 X89.243 Y124.598
G1 F900 X91.746 Y127.101 E96.58797
G0 F2625 X92.005 Y126.653
G1 F900 X89.502 Y124.15 E96.70588
G0 F2625 X89.76 Y123.701
G1 F900 X92.263 Y126.205 E96.82382
G0 F2625 X92.522 Y125.756
G1 F900 X90.019 Y123.253 E96.94173
G0 F2625 X90.278 Y122.805
G1 F900 X92.781 Y125.308 E97.05964
G0 F2625 X93.04 Y124.86
G1 F900 X90.537 Y122.357 E97.17755
G0 F2625 X90.796 Y121.908
G1 F900 X93.299 Y124.411 E97.29546
G0 F2625 X93.558 Y123.963
G1 F900 X91.054 Y121.46 E97.4134
G0 F2625 X91.313 Y121.012
G1 F900 X93.816 Y123.515 E97.53131
G0 F2625 X94.075 Y123.066
G1 F900 X91.572 Y120.563 E97.64922
G0 F2625 X91.831 Y120.115
G1 F900 X94.335 Y122.619 E97.76718
G0 F2625 X94.593 Y122.171
G1 F900 X92.09 Y119.667 E97.88512
G0 F2625 X92.348 Y119.218
G1 F900 X94.852 Y121.722 E98.00307
G0 F2625 X95.111 Y121.274
G1 F900 X92.607 Y118.77 E98.12103
G0 F2625 X92.866 Y118.322
G1 F900 X95.37 Y120.826 E98.23899
G0 F2625 X95.871 Y120.62
G1 F900 X93.125 Y117.873 E98.36837
G0 F2625 X93.384 Y117.425
G1 F900 X96.578 Y120.62 E98.51886
G0 F2625 X97.285 Y120.62
G1 F900 X93.642 Y116.977 E98.69047
G0 F2625 X93.901 Y116.529
G1 F900 X97.992 Y120.62 E98.88319
G0 F2625 X98.7 Y120.62
G1 F900 X94.16 Y116.08 E99.09706
G0 F2625 X94.419 Y115.632
G1 F900 X99.407 Y120.62 E99.33204
G0 F2625 X100.114 Y120.62
G1 F900 X94.678 Y115.184 E99.58812
G0 F2625 X94.936 Y114.735
G1 F900 X100.821 Y120.62 E99.86535
G0 F2625 X101.528 Y120.62
G1 F900 X95.195 Y114.287 E100.16368
G0 F2625 X95.454 Y113.839
G1 F900 X102.235 Y120.62 E100.48312
G0 F2625 X102.942 Y120.62
G1 F900 X95.713 Y113.39 E100.82369
G0 F2625 X95.972 Y112.942
G1 F900 X103.649 Y120.62 E101.18536
G0 F2625 X104.356 Y120.62
G1 F900 X96.23 Y112.494 E101.56816
G0 F2625 X96.489 Y112.046
G1 F900 X105.064 Y120.62 E101.97208
G0 F2625 X105.771 Y120.62
G1 F900 X96.748 Y111.597 E102.39714
G0 F2625 X97.007 Y111.149
G1 F900 X106.478 Y120.62 E102.8433
G0 F2625 X107.185 Y120.62
G1 F900 X97.266 Y110.701 E103.31056
G0 F2625 X97.524 Y110.252
G1 F900 X107.892 Y120.62 E103.79898
G0 F2625 X108.599 Y120.62
G1 F900 X97.783 Y109.804 E104.3085
G0 F2625 X98.042 Y109.356
G1 F900 X109.306 Y120.62 E104.83912
G0 F2625 X110.013 Y120.62
G1 F900 X98.301 Y108.908 E105.39085
G0 F2625 X98.56 Y108.46
G1 F900 X110.72 Y120.62 E105.96368
G0 F2625 X111.428 Y120.62
G1 F900 X98.819 Y108.011 E106.55767
G0 F2625 X99.078 Y107.563
G1 F900 X112.135 Y120.62 E107.17276
G0 F2625 X112.842 Y120.62
G1 F900 X99.337 Y107.115 E107.80895
G0 F2625 X99.595 Y106.667
G1 F900 X113.549 Y120.62 E108.46627
G0 F2625 X114.256 Y120.62
G1 F900 X99.854 Y106.218 E109.14472
G0 F2625 X100.113 Y105.77
G1 F900 X114.963 Y120.62 E109.84427
G0 F2625 X115.67 Y120.62
G1 F900 X100.372 Y105.322 E110.56493
G0 F2625 X100.631 Y104.873
G1 F900 X116.377 Y120.62 E111.30672
G0 F2625 X117.084 Y120.62
G1 F900 X100.889 Y104.425 E112.06963
G0 F2625 X101.148 Y103.977
G1 F900 X117.791 Y120.62 E112.85365
G0 F2625 X118.499 Y120.62
G1 F900 X101.407 Y103.528 E113.65882
G0 F2625 X101.666 Y103.08
G1 F900 X119.206 Y120.62 E114.48509
G0 F2625 X119.913 Y120.62
G1 F900 X101.925 Y102.632 E115.33247
G0 F2625 X102.184 Y102.184
G1 F900 X120.62 Y120.62 E116.20095
G0 F2625 X121.327 Y120.62
G1 F900 X102.442 Y101.735 E117.09058
G0 F2625 X102.701 Y101.287
G1 F900 X122.034 Y120.62 E118.00132
G0 F2625 X122.741 Y120.62
G1 F900 X102.96 Y100.839 E118.93317
G0 F2625 X103.219 Y100.39
G1 F900 X123.448 Y120.62 E119.88614
G0 F2625 X124.155 Y120.62
G1 F900 X103.478 Y99.942 E120.86021
G0 F2625 X103.736 Y99.494
G1 F900 X124.863 Y120.62 E121.85544
G0 F2625 X125.57 Y120.62
G1 F900 X103.995 Y99.045 E122.87179
G0 F2625 X104.254 Y98.597
G1 F900 X126.277 Y120.62 E123.90925
G0 F2625 X126.984 Y120.62
G1 F900 X104.513 Y98.149 E124.96781
G0 F2625 X104.772 Y97.7
G1 F900 X127.691 Y120.62 E126.0475
G0 F2625 X128.398 Y120.62
G1 F900 X105.03 Y97.252 E127.14832
G0 F2625 X105.289 Y96.804
G1 F900 X129.105 Y120.62 E128.27025
G0 F2625 X129.812 Y120.62
G1 F900 X105.548 Y96.356 E129.41327
G0 F2625 X105.807 Y95.907
G1 F900 X126.904 Y117.004 E130.40711
G0 F2625 X127.1 Y117.2
G1 F900 X130.519 Y120.62 E130.5682
G0 F2625 X131.226 Y120.62
G1 F900 X127.807 Y117.2 E130.72928
G0 F2625 X127.163 Y116.556
G1 F900 X106.066 Y95.459 E131.72312
G0 F2625 X106.324 Y95.011
G1 F900 X127.422 Y116.108 E132.71698
G0 F2625 X127.68 Y115.66
G1 F900 X106.583 Y94.562 E133.71084
G0 F2625 X106.842 Y94.114
G1 F900 X127.939 Y115.211 E134.70468
G0 F2625 X128.198 Y114.763
G1 F900 X107.101 Y93.666 E135.69851
G0 F2625 X107.36 Y93.217
G1 F900 X128.457 Y114.315 E136.69237
G0 F2625 X128.716 Y113.866
G1 F900 X107.618 Y92.769 E137.68623
G0 F2625 X107.877 Y92.321
G1 F900 X128.974 Y113.418 E138.68007
G0 F2625 X129.233 Y112.97
G1 F900 X108.136 Y91.872 E139.67393
G0 F2625 X108.395 Y91.424
G1 F900 X129.492 Y112.521 E140.66777
G0 F2625 X129.751 Y112.073
G1 F900 X108.654 Y90.976 E141.6616
G0 F2625 X108.912 Y90.528
G1 F900 X130.01 Y111.625 E142.65546
G0 F2625 X130.268 Y111.176
G1 F900 X109.171 Y90.079 E143.6493
G0 F2625 X109.431 Y89.632
G1 F900 X130.527 Y110.728 E144.64309
G0 F2625 X130.786 Y110.28
G1 F900 X109.689 Y89.183 E145.63693
G0 F2625 X109.948 Y88.735
G1 F900 X131.045 Y109.832 E146.63076
G0 F2625 X131.304 Y109.383
G1 F900 X110.207 Y88.287 E147.62458
G0 F2625 X110.466 Y87.838
G1 F900 X131.562 Y108.935 E148.61839
G0 F2625 X131.821 Y108.487
G1 F900 X110.725 Y87.39 E149.6122
G0 F2625 X110.983 Y86.942
